X:1033
T:Milky Way, The
R:reel
C:Vincent Broderick (1920-2008)
Z:id:hn-reel-1033
M:C|
L:1/8
K:D
D2 (3FED FAAB | d2fd efdA | D2 (3FED FAAd | BF~F2 BFAF |
D2 (3FED FAAB | defd efd2 | efdB BAFB | AFEG FDD2 :|
|: efdB BAFA | d2fd efd2 | efdB BAFB | AFEG FDD2 |
efdB BAFA | d2fd efde | f2df efdB | AFEG FDD2 :|

